src/_assets/_icons/_figma/icon-leaf-1.svg

<svg fill="none" height="24" width="24" xmlns="http://www.w3.org/2000/svg" xmlns:xlink="http://www.w3.org/1999/xlink"><mask id="a" fill="#000" height="19" maskUnits="userSpaceOnUse" width="17" x="4" y="3"><path d="m4 3h17v19h-17z" fill="#fff"/><path clip-rule="evenodd" d="m7.47 6.442c1.764-1.541 4.527-2.442 8.55-2.442h3.54c.243 0 .44.199.44.444v1.804c-.225 3.935-1.3 6.723-3.088 8.526-1.791 1.807-4.233 2.56-7.05 2.56h-2.659a14.026 14.026 0 0 0 -.431 2.27.442.442 0 1 1 -.876-.098c.107-.972.29-1.9.566-2.774-1.46-1.746-1.462-3.44-1.462-4.288.006-2.313.698-4.451 2.47-6.002zm.025 10.002a9.516 9.516 0 0 1 .97-1.92c.94-1.423 2.305-2.593 4.22-3.451a.446.446 0 0 0 .224-.587.44.44 0 0 0 -.582-.226c-2.052.92-3.553 2.194-4.596 3.771-.357.54-.659 1.114-.91 1.716-.94-1.345-.94-2.588-.94-3.3v-.002c.007-2.132.638-3.994 2.168-5.332 1.54-1.347 4.06-2.224 7.971-2.224h3.098v1.32c-.218 3.802-1.25 6.344-2.83 7.936-1.576 1.59-3.762 2.3-6.427 2.3h-2.366z" fill="#000" fill-rule="evenodd"/><path d="m7.495 16.444a9.516 9.516 0 0 1 .97-1.92c.94-1.423 2.305-2.593 4.22-3.451a.446.446 0 0 0 .224-.587.44.44 0 0 0 -.582-.226c-2.052.92-3.553 2.194-4.596 3.771-.357.54-.659 1.114-.91 1.716-.94-1.345-.94-2.588-.94-3.3v-.002c.007-2.132.638-3.994 2.168-5.332 1.54-1.347 4.06-2.224 7.971-2.224h3.098v1.32c-.218 3.802-1.25 6.344-2.83 7.936-1.576 1.59-3.762 2.3-6.427 2.3h-2.366z" fill="#000"/></mask><path clip-rule="evenodd" d="m7.47 6.442c1.764-1.541 4.527-2.442 8.55-2.442h3.54c.243 0 .44.199.44.444v1.804c-.225 3.935-1.3 6.723-3.088 8.526-1.791 1.807-4.233 2.56-7.05 2.56h-2.659a14.026 14.026 0 0 0 -.431 2.27.442.442 0 1 1 -.876-.098c.107-.972.29-1.9.566-2.774-1.46-1.746-1.462-3.44-1.462-4.288.006-2.313.698-4.451 2.47-6.002zm.025 10.002a9.516 9.516 0 0 1 .97-1.92c.94-1.423 2.305-2.593 4.22-3.451a.446.446 0 0 0 .224-.587.44.44 0 0 0 -.582-.226c-2.052.92-3.553 2.194-4.596 3.771-.357.54-.659 1.114-.91 1.716-.94-1.345-.94-2.588-.94-3.3v-.002c.007-2.132.638-3.994 2.168-5.332 1.54-1.347 4.06-2.224 7.971-2.224h3.098v1.32c-.218 3.802-1.25 6.344-2.83 7.936-1.576 1.59-3.762 2.3-6.427 2.3h-2.366z" fill="#4d7c0f" fill-rule="evenodd"/><path d="m7.495 16.444a9.516 9.516 0 0 1 .97-1.92c.94-1.423 2.305-2.593 4.22-3.451a.446.446 0 0 0 .224-.587.44.44 0 0 0 -.582-.226c-2.052.92-3.553 2.194-4.596 3.771-.357.54-.659 1.114-.91 1.716-.94-1.345-.94-2.588-.94-3.3v-.002c.007-2.132.638-3.994 2.168-5.332 1.54-1.347 4.06-2.224 7.971-2.224h3.098v1.32c-.218 3.802-1.25 6.344-2.83 7.936-1.576 1.59-3.762 2.3-6.427 2.3h-2.366z" fill="#84cc16"/><path d="m7.495 16.444-.469-.175a.5.5 0 0 0 .469.675zm.97-1.92.417.276zm4.22-3.451.205.456zm-.358-.813.205.457zm-4.596 3.771.417.276zm-.91 1.716-.41.287a.5.5 0 0 0 .872-.094zm-.94-3.3h.5zm0-.002-.5-.001v.001zm2.169-5.332-.33-.376.33.377zm11.07-2.224h.5a.5.5 0 0 0 -.5-.5zm0 1.32.498.03.001-.03h-.5zm-2.83 7.936.355.352zm-8.327 2.475c.245-.654.55-1.26.919-1.82l-.834-.552a10.014 10.014 0 0 0 -1.022 2.021l.937.35zm.919-1.82c.884-1.337 2.171-2.448 4.008-3.27l-.41-.913c-1.993.893-3.434 2.122-4.432 3.631zm4.008-3.27a.946.946 0 0 0 .476-1.245l-.915.403a.054.054 0 0 1 .03-.072l.409.913zm.476-1.245a.94.94 0 0 0 -1.243-.48l.409.912a.06.06 0 0 1 -.08-.03l.915-.402zm-1.243-.48c-2.131.954-3.71 2.287-4.809 3.95l.834.552c.986-1.49 2.41-2.706 4.384-3.59l-.41-.913zm-4.809 3.95c-.376.569-.692 1.17-.954 1.8l.923.385c.24-.575.526-1.12.865-1.633zm-.083 1.706c-.847-1.213-.85-2.323-.85-3.013h-1c0 .732-.002 2.107 1.03 3.586zm-.85-3.013v-.003h-1v.003zm0-.002c.006-2.032.605-3.738 1.997-4.956l-.659-.753c-1.666 1.458-2.331 3.475-2.337 5.707l1 .002zm1.998-4.956c1.414-1.237 3.797-2.101 7.642-2.101v-1c-3.976 0-6.634.89-8.3 2.348zm7.642-2.101h3.098v-1h-3.099v1zm2.598-.5v1.32h1v-1.319h-1zm.001 1.292c-.214 3.73-1.222 6.137-2.685 7.612l.71.704c1.695-1.71 2.751-4.387 2.974-8.259zm-2.685 7.612c-1.455 1.468-3.496 2.151-6.073 2.151v1c2.753 0 5.085-.734 6.783-2.447zm-6.075 2.151h-2.365v1h2.365zm-2.39-9.502.658.753zm12.528-.194.999.057zm-3.087 8.526.71.704zm-9.708 2.56v-1a1 1 0 0 0 -.962.728l.962.271zm-.431 2.27.994.11zm-.487.393-.111.994zm-.39-.49-.993-.11.994.11zm.567-2.775.954.3a1 1 0 0 0 -.187-.941zm-1.462-4.288-1-.001v.001zm0 0-1-.004v.002l1 .001zm11.02-9.444c-4.153 0-7.193.927-9.207 2.69l1.316 1.505c1.511-1.321 3.997-2.195 7.891-2.195zm3.54 0h-3.54v2h3.54zm1.44 1.444c0-.79-.637-1.444-1.44-1.444v2a.557.557 0 0 1 -.56-.556zm0 1.778v-1.778h-2v1.778zm-.002.082.002-.081h-2v-.031l1.998.114zm-3.375 9.174c2.02-2.038 3.143-5.097 3.375-9.173l-1.998-.115c-.216 3.794-1.244 6.31-2.799 7.879l1.42 1.408zm-7.763 2.855c2.993 0 5.726-.802 7.762-2.855l-1.42-1.408c-1.549 1.561-3.7 2.263-6.342 2.263zm-2.657 0h2.657v-2h-2.656v2zm.563 1.381c.083-.751.215-1.454.4-2.11l-1.925-.542a15.02 15.02 0 0 0 -.463 2.433l1.988.22zm-1.592 1.277c.799.09 1.505-.49 1.592-1.277l-1.988-.219a.558.558 0 0 1 .618-.492zm-1.272-1.594a1.444 1.444 0 0 0 1.272 1.594l.222-1.988a.556.556 0 0 1 .494.613l-1.988-.22zm.606-2.964a15.553 15.553 0 0 0 -.606 2.964l1.988.219c.1-.918.273-1.78.526-2.584l-1.908-.6zm-1.508-3.989c0 .906 0 2.904 1.696 4.93l1.534-1.283c-1.227-1.466-1.23-2.858-1.23-3.647zm0-.002v.001l2 .003v-.001zm2.813-6.753c-2.049 1.792-2.806 4.241-2.813 6.751l2 .006c.006-2.113.631-3.94 2.13-5.251l-1.318-1.506z" fill="#fff" mask="url(#a)"/></svg>

<?xml version="1.0" encoding="utf-8"?>
<!-- Generator: Adobe Illustrator 27.6.1, SVG Export Plug-In . SVG Version: 6.00 Build 0)  -->
<svg version="1.1" id="Layer_1" xmlns="http://www.w3.org/2000/svg" xmlns:xlink="http://www.w3.org/1999/xlink" x="0px" y="0px"
	 viewBox="0 0 24 24" style="enable-background:new 0 0 24 24;" xml:space="preserve">
<style type="text/css">
	.st0{fill-rule:evenodd;clip-rule:evenodd;fill:#4D7C0F;}
	.st1{fill:#84CC16;}
	.st2{fill:#FFFFFF;filter:url(#Adobe_OpacityMaskFilter);}
	.st3{fill-rule:evenodd;clip-rule:evenodd;}
	.st4{mask:url(#a_00000016073139255147637930000011547470493782760602_);fill:#FFFFFF;}
</style>
<path class="st0" d="M7.5,6.4C9.2,4.9,12,4,16,4h3.5C19.8,4,20,4.2,20,4.4v1.8c-0.2,3.9-1.3,6.7-3.1,8.5c-1.8,1.8-4.2,2.6-7.1,2.6
	H7.2c-0.2,0.7-0.4,1.5-0.4,2.3c0,0.2-0.2,0.4-0.5,0.4s-0.4-0.2-0.4-0.5c0,0,0,0,0-0.1c0.1-1,0.3-1.9,0.6-2.8C5,15,5,13.3,5,12.4
	C5,10.1,5.7,8,7.5,6.4z M7.5,16.4c0.2-0.7,0.6-1.3,1-1.9c0.9-1.4,2.3-2.6,4.2-3.5c0.2-0.1,0.3-0.4,0.2-0.6c-0.1-0.2-0.4-0.3-0.6-0.2
	c0,0,0,0,0,0c-2.1,0.9-3.6,2.2-4.6,3.8c-0.4,0.5-0.7,1.1-0.9,1.7c-0.9-1.3-0.9-2.6-0.9-3.3v0c0-2.1,0.6-4,2.2-5.3
	c1.5-1.3,4.1-2.2,8-2.2h3.1v1.3c-0.2,3.8-1.2,6.3-2.8,7.9c-1.6,1.6-3.8,2.3-6.4,2.3L7.5,16.4L7.5,16.4z"/>
<path class="st1" d="M7.5,16.4c0.2-0.7,0.6-1.3,1-1.9c0.9-1.4,2.3-2.6,4.2-3.5c0.2-0.1,0.3-0.4,0.2-0.6c-0.1-0.2-0.4-0.3-0.6-0.2
	c0,0,0,0,0,0c-2.1,0.9-3.6,2.2-4.6,3.8c-0.4,0.5-0.7,1.1-0.9,1.7c-0.9-1.3-0.9-2.6-0.9-3.3v0c0-2.1,0.6-4,2.2-5.3
	c1.5-1.3,4.1-2.2,8-2.2h3.1v1.3c-0.2,3.8-1.2,6.3-2.8,7.9c-1.6,1.6-3.8,2.3-6.4,2.3L7.5,16.4L7.5,16.4z"/>
<defs>
	<filter id="Adobe_OpacityMaskFilter" filterUnits="userSpaceOnUse" x="4" y="3" width="17" height="18">
		<feColorMatrix  type="matrix" values="1 0 0 0 0  0 1 0 0 0  0 0 1 0 0  0 0 0 1 0"/>
	</filter>
</defs>
<mask maskUnits="userSpaceOnUse" x="4" y="3" width="17" height="18" id="a_00000016073139255147637930000011547470493782760602_">
	<path class="st2" d="M4,3h17v19H4V3z"/>
	<path class="st3" d="M7.5,6.4C9.2,4.9,12,4,16,4h3.5C19.8,4,20,4.2,20,4.4v1.8c-0.2,3.9-1.3,6.7-3.1,8.5c-1.8,1.8-4.2,2.6-7.1,2.6
		H7.2c-0.2,0.7-0.4,1.5-0.4,2.3c0,0.2-0.2,0.4-0.5,0.4s-0.4-0.2-0.4-0.5c0,0,0,0,0-0.1c0.1-1,0.3-1.9,0.6-2.8C5,15,5,13.3,5,12.4
		C5,10.1,5.7,8,7.5,6.4z M7.5,16.4c0.2-0.7,0.6-1.3,1-1.9c0.9-1.4,2.3-2.6,4.2-3.5c0.2-0.1,0.3-0.4,0.2-0.6
		c-0.1-0.2-0.4-0.3-0.6-0.2c0,0,0,0,0,0c-2.1,0.9-3.6,2.2-4.6,3.8c-0.4,0.5-0.7,1.1-0.9,1.7c-0.9-1.3-0.9-2.6-0.9-3.3v0
		c0-2.1,0.6-4,2.2-5.3c1.5-1.3,4.1-2.2,8-2.2h3.1v1.3c-0.2,3.8-1.2,6.3-2.8,7.9c-1.6,1.6-3.8,2.3-6.4,2.3L7.5,16.4L7.5,16.4z"/>
	<path d="M7.5,16.4c0.2-0.7,0.6-1.3,1-1.9c0.9-1.4,2.3-2.6,4.2-3.5c0.2-0.1,0.3-0.4,0.2-0.6c-0.1-0.2-0.4-0.3-0.6-0.2c0,0,0,0,0,0
		c-2.1,0.9-3.6,2.2-4.6,3.8c-0.4,0.5-0.7,1.1-0.9,1.7c-0.9-1.3-0.9-2.6-0.9-3.3v0c0-2.1,0.6-4,2.2-5.3c1.5-1.3,4.1-2.2,8-2.2h3.1
		v1.3c-0.2,3.8-1.2,6.3-2.8,7.9c-1.6,1.6-3.8,2.3-6.4,2.3L7.5,16.4L7.5,16.4z"/>
</mask>
<path class="st4" d="M7.5,16.4L7,16.3c-0.1,0.3,0,0.5,0.3,0.6c0.1,0,0.1,0,0.2,0V16.4z M8.5,14.5l0.4,0.3L8.5,14.5z M12.7,11.1
	l0.2,0.5L12.7,11.1z M12.3,10.3l0.2,0.5L12.3,10.3z M7.7,14l0.4,0.3L7.7,14z M6.8,15.7L6.4,16c0.2,0.2,0.5,0.3,0.7,0.1
	c0.1-0.1,0.1-0.1,0.2-0.2L6.8,15.7z M5.9,12.4h0.5H5.9z M5.9,12.4l-0.5,0v0H5.9z M8,7.1L7.7,6.7L8,7.1L8,7.1z M19.1,4.9h0.5
	c0-0.3-0.2-0.5-0.5-0.5V4.9z M19.1,6.2l0.5,0l0,0H19.1L19.1,6.2z M16.3,14.1l0.4,0.4L16.3,14.1z M8,16.6c0.2-0.7,0.6-1.3,0.9-1.8
	L8,14.2c-0.4,0.6-0.8,1.3-1,2L8,16.6L8,16.6z M8.9,14.8c0.9-1.3,2.2-2.4,4-3.3l-0.4-0.9c-2,0.9-3.4,2.1-4.4,3.6L8.9,14.8z
	 M12.9,11.5c0.5-0.2,0.7-0.8,0.5-1.2l-0.9,0.4c0,0,0-0.1,0-0.1c0,0,0,0,0,0L12.9,11.5L12.9,11.5z M13.4,10.3
	c-0.2-0.5-0.8-0.7-1.2-0.5c0,0,0,0,0,0l0.4,0.9c0,0-0.1,0-0.1,0c0,0,0,0,0,0L13.4,10.3L13.4,10.3z M12.1,9.8c-2.1,1-3.7,2.3-4.8,3.9
	l0.8,0.6c1-1.5,2.4-2.7,4.4-3.6L12.1,9.8L12.1,9.8z M7.3,13.8c-0.4,0.6-0.7,1.2-1,1.8l0.9,0.4c0.2-0.6,0.5-1.1,0.9-1.6L7.3,13.8z
	 M7.2,15.5c-0.8-1.2-0.8-2.3-0.8-3h-1c0,0.7,0,2.1,1,3.6L7.2,15.5z M6.4,12.4L6.4,12.4l-1,0v0H6.4z M6.4,12.4c0-2,0.6-3.7,2-5
	L7.7,6.7c-1.7,1.5-2.3,3.5-2.3,5.7L6.4,12.4L6.4,12.4z M8.4,7.5c1.4-1.2,3.8-2.1,7.6-2.1v-1c-4,0-6.6,0.9-8.3,2.3L8.4,7.5z M16,5.4
	h3.1v-1H16L16,5.4L16,5.4z M18.6,4.9v1.3h1V4.9L18.6,4.9L18.6,4.9z M18.6,6.2c-0.2,3.7-1.2,6.1-2.7,7.6l0.7,0.7
	c1.7-1.7,2.8-4.4,3-8.3L18.6,6.2z M15.9,13.8c-1.5,1.5-3.5,2.2-6.1,2.2v1c2.8,0,5.1-0.7,6.8-2.4L15.9,13.8z M9.9,15.9H7.5v1h2.4
	V15.9z M7.5,6.4l0.7,0.8L7.5,6.4z M20,6.2l1,0.1L20,6.2z M16.9,14.8l0.7,0.7L16.9,14.8z M7.2,17.3v-1c-0.4,0-0.8,0.3-1,0.7L7.2,17.3
	L7.2,17.3z M6.8,19.6l1,0.1L6.8,19.6z M6.3,20l-0.1,1L6.3,20z M5.9,19.5l-1-0.1L5.9,19.5L5.9,19.5z M6.5,16.7l1,0.3
	c0.1-0.3,0-0.7-0.2-0.9L6.5,16.7z M5,12.4l-1,0v0H5z M5,12.4l-1,0v0L5,12.4L5,12.4z M16,3c-4.2,0-7.2,0.9-9.2,2.7l1.3,1.5
	C9.6,5.9,12.1,5,16,5V3z M19.6,3H16v2h3.5V3z M21,4.4C21,3.7,20.4,3,19.6,3v2C19.3,5,19,4.8,19,4.4c0,0,0,0,0,0H21z M21,6.2V4.4h-2
	v1.8H21z M21,6.3L21,6.3l-2-0.1v0L21,6.3L21,6.3z M17.6,15.5c2-2,3.1-5.1,3.4-9.2l-2-0.1c-0.2,3.8-1.2,6.3-2.8,7.9L17.6,15.5
	L17.6,15.5z M9.9,18.3c3,0,5.7-0.8,7.8-2.9l-1.4-1.4c-1.5,1.6-3.7,2.3-6.3,2.3L9.9,18.3z M7.2,18.3h2.7v-2H7.2L7.2,18.3L7.2,18.3z
	 M7.8,19.7C7.8,19,8,18.3,8.2,17.6l-1.9-0.5c-0.2,0.8-0.4,1.6-0.5,2.4L7.8,19.7L7.8,19.7z M6.2,21c0.8,0.1,1.5-0.5,1.6-1.3l-2-0.2
	c0-0.3,0.3-0.5,0.6-0.5c0,0,0,0,0,0L6.2,21z M4.9,19.4c-0.1,0.8,0.5,1.5,1.3,1.6l0.2-2c0.3,0,0.5,0.3,0.5,0.6c0,0,0,0,0,0L4.9,19.4
	L4.9,19.4z M5.5,16.4c-0.3,1-0.5,2-0.6,3l2,0.2C7,18.7,7.2,17.8,7.4,17L5.5,16.4L5.5,16.4z M4,12.4c0,0.9,0,2.9,1.7,4.9l1.5-1.3
	C6,14.6,6,13.2,6,12.4L4,12.4z M4,12.4L4,12.4l2,0v0L4,12.4z M6.8,5.7C4.8,7.5,4,9.9,4,12.4l2,0c0-2.1,0.6-3.9,2.1-5.3L6.8,5.7
	L6.8,5.7z"/>
</svg>
